img/think.svg

<svg xmlns="http://www.w3.org/2000/svg" width="57" height="68" viewBox="0 0 57 68">
  <path fill="#E38500" d="M56.9457462,24.4004345 C56.0325264,10.3635228 44.2499256,-0.420631079 30.2999811,0.0126073649 C16.3500366,0.445845808 5.24852022,11.9407036 5.1944546,26.0076558 C5.19700779,27.4200353 4.90273366,28.8169438 4.33100463,30.1064213 L0.334066885,39.1251089 C-0.108684299,40.1233591 -0.111454595,41.2638713 0.326441828,42.2642945 C0.764338251,43.2647178 1.60196608,44.0315308 2.63195793,44.3748975 L5.1874913,45.224128 L5.1874913,53.2181243 C5.19132862,56.6042971 7.91384555,59.3483679 11.2734209,59.3522356 L19.3090762,59.3522356 L20.8897467,64.9669828 C21.5302806,67.1805426 23.8179246,68.4632556 26.0217034,67.8445407 L51.0547891,60.6085353 C53.250962,59.9629303 54.5235998,57.6571753 53.9097447,55.4359494 L50.4698714,43.315114 C55.0595401,38.1417093 57.3931227,31.3258014 56.9457462,24.4004345 Z M47.3015671,41.6587636 C46.8721551,42.1095316 46.7130152,42.7564771 46.8837687,43.3572246 L50.5603944,56.3974749 C50.6548972,56.7628434 50.4456704,57.1380915 50.0868896,57.2467054 L25.0677304,64.4406002 C24.7138026,64.5286183 24.3524271,64.3266048 24.239097,63.9773836 L22.2963346,57.0993183 C22.0822585,56.3479037 21.4007805,55.8298869 20.6251411,55.8289817 L11.2734209,55.8289817 C9.8351187,55.8289817 8.66914439,54.6537765 8.66914439,53.2040874 L8.66914439,43.9537915 C8.6685757,43.1988899 8.18901337,42.5289714 7.47841903,42.2904226 L3.7321603,41.0411414 C3.63667648,41.0099857 3.55873026,40.9395628 3.51760018,40.8472904 C3.47647009,40.755018 3.47599696,40.6495128 3.51629781,40.5568694 L7.50627225,31.5381818 C8.27895223,29.8009748 8.67765348,27.9184628 8.67610769,26.0146743 C8.67426062,20.0209519 11.0347842,14.2719774 15.2383902,10.0324595 C19.4419962,5.79294155 25.1443469,3.41015959 31.0909903,3.40829848 L31.1536601,3.40829848 C40.1376409,3.4124442 48.2512258,8.82278832 51.768759,17.1549691 C55.2862922,25.4871498 53.5281177,35.1312276 47.3015671,41.6587636 Z M19.3230028,14.0482444 C14.0959635,19.298751 12.9044213,27.3832275 16.3914509,33.9384862 L15.1659091,38.1916572 C14.845548,39.2987338 15.1493129,40.4937929 15.9583469,41.3092319 C16.7673808,42.1246708 17.953053,42.4308407 19.0514339,42.1079433 L23.2711975,40.872699 C30.8524779,44.9279234 40.2489113,42.5356129 45.0100822,35.3380285 C49.771253,28.1404442 48.3490572,18.4778947 41.7197965,12.9834775 C35.0905358,7.48906032 25.4097273,7.94929603 19.3230028,14.0482444 L19.3230028,14.0482444 Z M40.5471601,35.4334126 C36.2565703,39.7629612 29.5930039,40.5934584 24.3853264,37.4477032 C23.9661011,37.1948363 23.4607466,37.1311668 22.9926652,37.2722423 L18.6754154,38.5355605 L19.9288105,34.1841314 C20.0687779,33.7123443 20.0056086,33.2029889 19.7547278,32.7804446 C16.2790221,26.8109593 17.9124137,19.1535538 23.5151644,15.1513664 C29.1179151,11.1491789 36.8272515,12.132836 41.2637994,17.4159673 C45.7003473,22.6990986 45.3890662,30.525196 40.5471601,35.4334126 Z M32.8875233,25.9795821 C32.8875233,26.9486256 32.1081287,27.7341906 31.1466967,27.7341906 C30.1852648,27.7341906 29.4058702,26.9486256 29.4058702,25.9795821 C29.4058702,25.0105386 30.1852648,24.2249736 31.1466967,24.2249736 C31.6120015,24.2193453 32.0601731,24.4017177 32.3911735,24.7313826 C32.7221739,25.0610475 32.9084132,25.5105598 32.9084132,25.9795821 L32.8875233,25.9795821 Z M38.4163884,25.9795821 C38.4163884,26.9486256 37.6369938,27.7341906 36.6755619,27.7341906 C35.7141299,27.7341906 34.9347353,26.9486256 34.9347353,25.9795821 C34.9347353,25.0105386 35.7141299,24.2249736 36.6755619,24.2249736 C37.1408666,24.2193453 37.5890382,24.4017177 37.9200386,24.7313826 C38.251039,25.0610475 38.4372783,25.5105598 38.4372783,25.9795821 L38.4163884,25.9795821 Z M27.3586582,25.9795821 C27.3586582,26.9486256 26.5792636,27.7341906 25.6178316,27.7341906 C24.6563997,27.7341906 23.8770051,26.9486256 23.8770051,25.9795821 C23.8770051,25.0105386 24.6563997,24.2249736 25.6178316,24.2249736 C26.0831363,24.2193453 26.531308,24.4017177 26.8623084,24.7313826 C27.1933088,25.0610475 27.3795481,25.5105598 27.3795481,25.9795821 L27.3586582,25.9795821 Z"/>
</svg>

<?xml version="1.0" encoding="utf-8"?>
<!-- Generator: Adobe Illustrator 23.1.1, SVG Export Plug-In . SVG Version: 6.00 Build 0)  -->
<svg version="1.1" id="Calque_1" xmlns="http://www.w3.org/2000/svg" xmlns:xlink="http://www.w3.org/1999/xlink" x="0px" y="0px"
	 viewBox="0 0 57 68" style="enable-background:new 0 0 57 68;" xml:space="preserve">
<path d="M56.9,24.4C56,10.4,44.2-0.4,30.3,0S5.2,11.9,5.2,26c0,1.4-0.3,2.8-0.9,4.1l-4,9c-0.4,1-0.4,2.1,0,3.1s1.3,1.8,2.3,2.1
	l2.6,0.8v8c0,3.4,2.7,6.1,6.1,6.1h8l1.6,5.6c0.6,2.2,2.9,3.5,5.1,2.9l25-7.2c2.2-0.6,3.5-3,2.9-5.2l-3.4-12.1
	C55.1,38.1,57.4,31.3,56.9,24.4z M47.3,41.7c-0.4,0.5-0.6,1.1-0.4,1.7l3.7,13c0.1,0.4-0.1,0.7-0.5,0.8l-25,7.2
	c-0.4,0.1-0.7-0.1-0.8-0.5l-1.9-6.9c-0.2-0.8-0.9-1.3-1.7-1.3h-9.4c-1.4,0-2.6-1.2-2.6-2.6V44c0-0.8-0.5-1.4-1.2-1.7L3.7,41
	c-0.1,0-0.2-0.1-0.2-0.2c0-0.1,0-0.2,0-0.3l4-9c0.8-1.7,1.2-3.6,1.2-5.5c0-6,2.4-11.7,6.6-16s9.9-6.6,15.9-6.6h0.1
	c9,0,17.1,5.4,20.6,13.7C55.3,25.5,53.5,35.1,47.3,41.7z M19.3,14c-5.2,5.3-6.4,13.3-2.9,19.9l-1.2,4.3c-0.3,1.1,0,2.3,0.8,3.1
	c0.8,0.8,2,1.1,3.1,0.8l4.2-1.2c7.6,4.1,17,1.7,21.7-5.5s3.3-16.9-3.3-22.4S25.4,7.9,19.3,14L19.3,14z M40.5,35.4
	c-4.3,4.3-11,5.2-16.2,2c-0.4-0.3-0.9-0.3-1.4-0.2l-4.3,1.3l1.3-4.4c0.1-0.5,0.1-1-0.2-1.4c-3.5-6-1.8-13.6,3.8-17.6
	s13.3-3,17.7,2.3S45.4,30.5,40.5,35.4z M32.9,26c0,1-0.8,1.8-1.7,1.8s-1.7-0.8-1.7-1.8s0.8-1.8,1.7-1.8c0.5,0,0.9,0.2,1.2,0.5
	S32.9,25.5,32.9,26L32.9,26z M38.4,26c0,1-0.8,1.8-1.7,1.8c-1,0-1.7-0.8-1.7-1.8s0.8-1.8,1.7-1.8c0.5,0,0.9,0.2,1.2,0.5
	C38.3,25.1,38.4,25.5,38.4,26L38.4,26z M27.4,26c0,1-0.8,1.8-1.7,1.8c-1,0-1.7-0.8-1.7-1.8s0.8-1.8,1.7-1.8c0.5,0,0.9,0.2,1.2,0.5
	C27.2,25.1,27.4,25.5,27.4,26L27.4,26z"/>
</svg>
